components/Common/Svg/svgs/phone.svg

<svg width="40" height="40" viewBox="0 0 40 40" fill="none" xmlns="http://www.w3.org/2000/svg">
<path fill-rule="evenodd" clip-rule="evenodd" d="M27.5 35.25C28.3284 35.25 29 34.5784 29 33.75V6.25001C29 5.42158 28.3284 4.75001 27.5 4.75001H12.5C11.6716 4.75001 11 5.42158 11 6.25001V33.75C11 34.5784 11.6716 35.25 12.5 35.25H27.5ZM31 33.75C31 35.683 29.433 37.25 27.5 37.25H12.5C10.567 37.25 9 35.683 9 33.75V6.25001C9 4.31701 10.567 2.75001 12.5 2.75001H27.5C29.433 2.75001 31 4.31701 31 6.25001V33.75ZM21.875 30.625C21.875 29.5895 21.0355 28.75 20 28.75C18.9645 28.75 18.125 29.5895 18.125 30.625C18.125 31.6605 18.9645 32.5 20 32.5C21.0355 32.5 21.875 31.6605 21.875 30.625Z" fill="#161616"/>
</svg>

<svg width="40" height="40" viewBox="0 0 40 40" fill="none" xmlns="http://www.w3.org/2000/svg"><path fill-rule="evenodd" clip-rule="evenodd" d="M27.5 35.25a1.5 1.5 0 0 0 1.5-1.5V6.25a1.5 1.5 0 0 0-1.5-1.5h-15a1.5 1.5 0 0 0-1.5 1.5v27.5a1.5 1.5 0 0 0 1.5 1.5h15Zm3.5-1.5a3.5 3.5 0 0 1-3.5 3.5h-15a3.5 3.5 0 0 1-3.5-3.5V6.25a3.5 3.5 0 0 1 3.5-3.5h15a3.5 3.5 0 0 1 3.5 3.5v27.5Zm-9.125-3.125a1.875 1.875 0 1 0-3.75 0 1.875 1.875 0 0 0 3.75 0Z" fill="#161616"/></svg>
